!!!OTL: McNab's Island
!!!ONM: 134.
**kern
*clefG2
*k[b-]
*F:
*M6/8
*MM100
{8d
=1
4g
8g
4g
8a
=2
4g
8e
4d}
{8d
=3
4g
8g
4g
8a
=4
4.g
4r}
{8d
=5
4e
8e
8d
8d
8d
=6
8e
8e
8e
4d}
{8d
=7
8e
8e
8e
4d
8d
=8
4.d
8r}
{8d
8d
=9
4d
8d
4d
8d
=10
4g
8g
4g}
{8d
=11
8d
8d
8d
8d
8d
8d
=12
4d
8d
4d}
{8f
=13||
4g
8g
4g
8g
=14
4.a}
{4g
8f
=15
8g
8g
8g
4a
8g
=16
4.f
4r
8r}
==
*-
!!!CNT: Folksongs of Maritime Canada
!!!MRD: 1928///-1932///
!!!OCL: Helen Creighton
!!!YOR: Songs and Ballads from Nova Scotia
!!!PPR: J.M. Dent & Sons, Limited
!!!PPP: Toronto, Canada
!!!PDT: 1932///
!!!reprint: Dover Publications, 1992: ISBN 0-486-21703-5
!!!ENC1: Craig Stuart Sapp (music and bibliographic data)                       
!!!ENC2: Marcus Pearce (phrase markings and key designations)                   
!!!ENC3: Darrell Conklin (phrase markings and key designations)   
!!!END: 2002/04/10/
!!!EEV: 2004/06/05
!!!MPN: Mr. Richard Hartlan
!!!PPG: 291
!!!EFL: 136/152
!!!ARE: Canada; Nova Scotia
!!!verses: 3
!!!VTS: 3108274020
